images/icon/security.svg

<svg height="140" viewBox="0 0 140 140" width="140" xmlns="http://www.w3.org/2000/svg"><g transform="scale(10)"><path d="m7.875 5.5v-.965a.876.876 0 1 0 -1.75 0v.965z" fill="#111827"/><path d="m12.5 0h-11a1.5 1.5 0 0 0 -1.5 1.5v2.92a10.194 10.194 0 0 0 6.461 9.48 1.5 1.5 0 0 0 1.078 0 10.194 10.194 0 0 0 6.461-9.48v-2.92a1.5 1.5 0 0 0 -1.5-1.5zm-2.5 8.5a1.5 1.5 0 0 1 -1.5 1.5h-3a1.5 1.5 0 0 1 -1.5-1.5v-1.5a1.5 1.5 0 0 1 .875-1.363v-1.1a2.125 2.125 0 1 1 4.25 0v1.1a1.5 1.5 0 0 1 .875 1.363z"/></g></svg>

<svg viewBox="0 0 140 140" height="140" width="140" xmlns="http://www.w3.org/2000/svg"><g transform="matrix(10,0,0,10,0,0)"><path d="M7.875,5.5V4.535a.876.876,0,1,0-1.75,0V5.5Z" fill="#111827" stroke="none" stroke-linecap="round" stroke-linejoin="round" stroke-width="0"></path><path d="M12.5,0H1.5A1.5,1.5,0,0,0,0,1.5V4.42A10.194,10.194,0,0,0,6.461,13.9a1.5,1.5,0,0,0,1.078,0A10.194,10.194,0,0,0,14,4.42V1.5A1.5,1.5,0,0,0,12.5,0ZM10,8.5A1.5,1.5,0,0,1,8.5,10h-3A1.5,1.5,0,0,1,4,8.5V7a1.5,1.5,0,0,1,.875-1.363v-1.1a2.125,2.125,0,1,1,4.25,0v1.1A1.5,1.5,0,0,1,10,7Z" fill="#000" stroke="none" stroke-linecap="round" stroke-linejoin="round" stroke-width="0"></path></g></svg>
